src/images/contacts/brif-contacts-img.svg

<svg width="80" height="80" viewBox="0 0 80 80" fill="none" xmlns="http://www.w3.org/2000/svg">
<circle cx="40" cy="40" r="40" fill="url(#paint0_linear_1594_724)"/>
<path d="M53.2799 41.44L43.7454 50.56H39.8981V46.88L49.4327 37.76L53.2799 41.44ZM58.9672 40.16C58.9672 40.64 58.4654 41.12 57.9636 41.6L53.7817 45.6L52.2763 44.16L56.6254 40L55.6217 39.04L54.4508 40.16L50.6036 36.48L54.2836 33.12C54.6181 32.8 55.2872 32.8 55.789 33.12L58.1308 35.36C58.4654 35.68 58.4654 36.32 58.1308 36.8C57.7963 37.12 57.4617 37.44 57.4617 37.76C57.4617 38.08 57.7963 38.4 58.1308 38.72C58.6326 39.2 59.1345 39.68 58.9672 40.16ZM25.3454 52.8V27.2H37.0545V35.2H45.4181V37.6L48.7636 34.4V33.6L38.7272 24H25.3454C23.5055 24 22 25.44 22 27.2V52.8C22 54.56 23.5055 56 25.3454 56H45.4181C47.2581 56 48.7636 54.56 48.7636 52.8H25.3454ZM38.7272 48.16C38.3927 48.16 38.0581 48.32 37.8909 48.32L37.0545 44.8H34.5454L31.0327 47.52L32.0363 43.2H29.5273L27.8545 51.2H30.3636L35.2145 47.04L36.2181 50.72H37.8909L38.7272 50.56V48.16Z" fill="white"/>
<defs>
<linearGradient id="paint0_linear_1594_724" x1="4.7102e-07" y1="40" x2="74.6672" y2="61.9702" gradientUnits="userSpaceOnUse">
<stop stop-color="#3369E7"/>
<stop offset="1" stop-color="#8E43E7"/>
</linearGradient>
</defs>
</svg>

<svg width="80" height="80" fill="none" xmlns="http://www.w3.org/2000/svg"><circle cx="40" cy="40" r="40" fill="url(#a)"/><path d="m53.28 41.44-9.535 9.12h-3.847v-3.68l9.535-9.12 3.847 3.68Zm5.687-1.28c0 .48-.502.96-1.003 1.44l-4.182 4-1.506-1.44 4.35-4.16-1.004-.96-1.171 1.12-3.847-3.68 3.68-3.36c.334-.32 1.003-.32 1.505 0l2.342 2.24c.334.32.334.96 0 1.44-.335.32-.67.64-.67.96 0 .32.335.64.67.96.502.48 1.004.96.836 1.44ZM25.345 52.8V27.2h11.71v8h8.363v2.4l3.346-3.2v-.8L38.727 24H25.345C23.505 24 22 25.44 22 27.2v25.6c0 1.76 1.506 3.2 3.345 3.2h20.073c1.84 0 3.346-1.44 3.346-3.2H25.345Zm13.382-4.64c-.334 0-.669.16-.836.16l-.837-3.52h-2.509l-3.512 2.72 1.003-4.32h-2.509l-1.672 8h2.509l4.85-4.16 1.004 3.68h1.673l.836-.16v-2.4Z" fill="#fff"/><defs><linearGradient id="a" x1="0" y1="40" x2="74.667" y2="61.97" gradientUnits="userSpaceOnUse"><stop stop-color="#3369E7"/><stop offset="1" stop-color="#8E43E7"/></linearGradient></defs></svg>
